src/modules/routing/components/assets/status-400.svg

<svg xmlns="http://www.w3.org/2000/svg" width="230.4" height="227.2"><g style="fill:#369dc9;fill-opacity:1"><path d="M7.938 2.016A.13.13 0 0 1 8.002 2a.13.13 0 0 1 .063.016.146.146 0 0 1 .054.057l6.857 11.667c.036.06.035.124.002.183a.163.163 0 0 1-.054.06.116.116 0 0 1-.066.017H1.146a.115.115 0 0 1-.066-.017.163.163 0 0 1-.054-.06.176.176 0 0 1 .002-.183L7.884 2.073a.147.147 0 0 1 .054-.057Zm1.044-.45a1.13 1.13 0 0 0-1.96 0L.165 13.233c-.457.778.091 1.767.98 1.767h13.713c.889 0 1.438-.99.98-1.767z" style="fill:#369dc9;fill-opacity:1" transform="translate(50.063 43.792)scale(7.89345)"/><path d="M7.002 12a1 1 0 1 1 2 0 1 1 0 0 1-2 0zM7.1 5.995a.905.905 0 1 1 1.8 0l-.35 3.507a.552.552 0 0 1-1.1 0z" style="fill:#369dc9;fill-opacity:1" transform="translate(50.063 43.792)scale(7.89345)"/></g></svg>

<?xml version="1.0" encoding="UTF-8" standalone="no"?>
<svg
   xmlns:dc="http://purl.org/dc/elements/1.1/"
   xmlns:cc="http://creativecommons.org/ns#"
   xmlns:rdf="http://www.w3.org/1999/02/22-rdf-syntax-ns#"
   xmlns:svg="http://www.w3.org/2000/svg"
   xmlns="http://www.w3.org/2000/svg"
   version="1.1"
   id="svg3169"
   width="230.39999"
   height="227.2"
   viewBox="0 0 230.39999 227.2">
  <metadata
     id="metadata3175">
    <rdf:RDF>
      <cc:Work
         rdf:about="">
        <dc:format>image/svg+xml</dc:format>
        <dc:type
           rdf:resource="http://purl.org/dc/dcmitype/StillImage" />
        <dc:title></dc:title>
      </cc:Work>
    </rdf:RDF>
  </metadata>
  <defs
     id="defs3173">
    <filter
       id="filter1622"
       style="color-interpolation-filters:sRGB;">
      <feColorMatrix
         id="feColorMatrix1618"
         result="colormatrix"
         values="1 0 0 0 0 0 1 0 0 0 0 0 1 0 0 0 0 0 5 -1 " />
      <feComposite
         id="feComposite1620"
         result="composite"
         k2="0.4"
         operator="arithmetic"
         in2="colormatrix" />
    </filter>
    <filter
       id="filter1628"
       style="color-interpolation-filters:sRGB;">
      <feColorMatrix
         id="feColorMatrix1624"
         result="colormatrix"
         values="1 0 0 0 0 0 1 0 0 0 0 0 1 0 0 0 0 0 5 -1 " />
      <feComposite
         id="feComposite1626"
         result="composite"
         k2="0.4"
         operator="arithmetic"
         in2="colormatrix" />
    </filter>
  </defs>
  <g
     transform="matrix(7.8934505,0,0,7.8934505,50.063395,43.791569)"
     id="g844"
     style="fill:#369dc9;fill-opacity:1">
    <path
       style="fill:#369dc9;fill-opacity:1"
       d="M 7.938,2.016 A 0.13,0.13 0 0 1 8.002,2 0.13,0.13 0 0 1 8.065,2.016 0.146,0.146 0 0 1 8.119,2.073 l 6.857,11.667 c 0.036,0.06 0.035,0.124 0.002,0.183 A 0.163,0.163 0 0 1 14.924,13.983 0.116,0.116 0 0 1 14.858,14 H 1.146 A 0.115,0.115 0 0 1 1.08,13.983 0.163,0.163 0 0 1 1.026,13.923 0.176,0.176 0 0 1 1.028,13.74 L 7.884,2.073 A 0.147,0.147 0 0 1 7.938,2.016 Z m 1.044,-0.45 a 1.13,1.13 0 0 0 -1.96,0 L 0.165,13.233 C -0.292,14.011 0.256,15 1.145,15 h 13.713 c 0.889,0 1.438,-0.99 0.98,-1.767 z"
       id="path830" />
    <path
       style="fill:#369dc9;fill-opacity:1"
       d="m 7.002,12 a 1,1 0 1 1 2,0 1,1 0 0 1 -2,0 z M 7.1,5.995 a 0.905,0.905 0 1 1 1.8,0 L 8.55,9.502 a 0.552,0.552 0 0 1 -1.1,0 z"
       id="path832" />
  </g>
</svg>
